X: 500
T: Crockett's Honeymoon
C:Crockett Family Mountaineers, 1928
B: jims roots
M:C|
L:1/8
R: reel
Q: 1/4=100
K:G
V:1 
{_B}(=B2 || "G" B)GAF G2GA | Bdef (3 gfe dc | BGAF G2GA | BcdB "D"A3c |
"G"BGAF G2GA | Bdef g2{a}(b2| b)eae gfed | BcdB "D"AFAc ||
"G"BGAF G2- G2 | Bdef (3 gfe dc | BGAF G2GA | BcdB "D"AFAc |
"G"BGAF G2GA | Bdef g2{a}(b2| b)eae gfed | BcdB "D"AFAc |]
"Em"Bd[e2g] ([e2g][e2g]) | edef gedc | "G"GGBG AGBG | AGBG AGEA |
"Em"Bd[e2g] ([e2g][e2g]) | edef g2{a}(b2| b)eae gfed | "G"BcdB "D"AFAc ||
"Em"Bd[e2g] ([e2g][e2g]) | edef gedc | "G"GGBG AGBG | cGBG AGED |
"Em"([B,2E][B,2E]) {_B}([G2B][G2B]) | [Be]d[Be]f g2{a}(b2| b)eae gfed | "G"BcdB "D"A3c |] 
% abcbook-tune_id 6298c2457cd41207d9727c64


% abcbook-boost 0
% abcbook-tablature 
% abcbook-transpose 
% abcbook-lastupdated 1654178373867
% abcbook-soundfonts 
% abcbook-repeats 1


